X:271
T:Malcolm Finlay
T:Calum Fhionnlaith
R:reel
H:Scottish
Z:id:hn-reel-271
M:C|
K:E
BEGB ebge|~f3e gfec|BEGB ebge|1 ~f3g e2ec:|2 ~f3g e2ef||
gebe ge~e2|gefe ceBe|gebe ge~e2|fefg e2ef|
gebe ge~e2|gefe c2ce|BEGB ebge|~f3g e2ec||

